assets/img/braze_icons/image-02.svg

<svg fill="none" height="24" viewBox="0 0 24 24" width="24" xmlns="http://www.w3.org/2000/svg"><g clip-rule="evenodd" fill="#801ed7" fill-rule="evenodd"><path d="m5.5 8.5c0-1.65685 1.34315-3 3-3 1.6569 0 3 1.34315 3 3 0 1.6569-1.3431 3-3 3-1.65685 0-3-1.3431-3-3z"/><path d="m12 1c-6.07513 0-11 4.92487-11 11 0 6.0751 4.92487 11 11 11 6.0751 0 11-4.9249 11-11 0-6.07513-4.9249-11-11-11zm-9 11c0-4.97056 4.02944-9 9-9 4.9706 0 9 4.02944 9 9 0 .4994-.0407.9894-.1189 1.4667l-3.0651-3.0651c-.1784-.1785-.3523-.3524-.5115-.48751-.1748-.14844-.3967-.30801-.6864-.40214-.4017-.13052-.8344-.13052-1.2361 0-.2897.09413-.5116.2537-.6864.40214-.1592.13511-.333.30901-.5115.48741l-8.24852 8.2486c-1.80381-1.6459-2.93558-4.0158-2.93558-6.6501z"/></g></svg>

<svg width="24" height="24" viewBox="0 0 24 24" fill="none" xmlns="http://www.w3.org/2000/svg">
<path fill-rule="evenodd" clip-rule="evenodd" d="M5.5 8.5C5.5 6.84315 6.84315 5.5 8.5 5.5C10.1569 5.5 11.5 6.84315 11.5 8.5C11.5 10.1569 10.1569 11.5 8.5 11.5C6.84315 11.5 5.5 10.1569 5.5 8.5Z" fill="#801ED7"/>
<path fill-rule="evenodd" clip-rule="evenodd" d="M12 1C5.92487 1 1 5.92487 1 12C1 18.0751 5.92487 23 12 23C18.0751 23 23 18.0751 23 12C23 5.92487 18.0751 1 12 1ZM3 12C3 7.02944 7.02944 3 12 3C16.9706 3 21 7.02944 21 12C21 12.4994 20.9593 12.9894 20.8811 13.4667L17.816 10.4016C17.6376 10.2231 17.4637 10.0492 17.3045 9.91409C17.1297 9.76565 16.9078 9.60608 16.6181 9.51195C16.2164 9.38143 15.7837 9.38143 15.382 9.51195C15.0923 9.60608 14.8704 9.76565 14.6956 9.91409C14.5364 10.0492 14.3626 10.2231 14.1841 10.4015L5.93558 18.6501C4.13177 17.0042 3 14.6343 3 12Z" fill="#801ED7"/>
</svg>
